X: 29064
T: Neil Of The Glenties
R: barndance
M: 4/4
K: Dmajor
d2 (3gfe dFFA|GEEG FD D2|dfec dFFA|(3GFE AG FD D2|
d2 (3gfe dFFA|GEEG FD D2|dfec dFFA|(3GFE ce d4||
fgaf defd|cdef gece|fgaf defd|AFGE FD D2|
fgaf defd|cdef g4|f2 ec defd|AFGE FD D2||

